X: 22
T: The Mad Dog
%R: reel
B: "Le Sylphe, Twenty Four Country Dances with Figures for the Year 1818", Button & Whitaker, p.11 #2
F: http://www.vwml.org/browse/browse-collections-dance-tune-books/browse-button1818
Z: 2014 John Chambers <jc:trillian.mit.edu>
N: The Figures by Mr WILSON.
M: 2/4
L: 1/16
K: D
% - - - - - - - - - - - - - - - - - - - - - - - - - - - - -
[|\
f2fa gfge | f2fa gfge | fd~d2 fd~d2 | cdef ecBA |
f2fa gfge | f2fa gfge | fedc  Bgec  | dcde d4  |]
[|\
c3d ecBA | e3f gedc | dfaa afed | dfaa afed |
c3d ecBA | e3f gedc | dfaa agec | dcde d4  |]
% - - - - - - - - - - Dance description - - - - - - - - - -
%%center SINGLE FIGURE        (Tune play'd straight thro')
%%begintext align
%% Whole figure at top |. lead down the middle
%% up again & half poussette with top Cu: |. .
%%endtext
%%center DOUBLE FIGURE        (Each strain repeated)
%%begintext align
%% Set & half right & left with 2d Cu: set & back again |. cross over 2 Cu: |:
%% cross up one Cu: half figure round the top Cu: |. & lead outsides |: .
%%endtext
%%sep 1 1 450

%%sep 1 1 500
%%sep 1 1 500

